X: 061
T: the Excisemans ROUT
%R: reel, march
B: J.Gray's Twenty four Country Dances (for the Year 1812) p.6 #1
S: http://www.eatmt.org.uk/gray_1812.htm 2014-8-7
Z: 2014 John Chambers <jc:trillian.mit.edu>
N: The 2nd strain is missing all its (internal) bar lines.
M: 2/4
L: 1/8
K: C
|:\
^dede | BcBc | ^cdcd | e2c2 |\
^dede | BcBc | dBGB | c2z2 :|
:|\
EGce | gggg | DGBd | gggg |\
EGce | gggg | gfdB | c2z2 :|
% - - - - - - - - - - - - - - - - - - - - - - - - -
%%begintext align
%% Cast off 2 Cu:, back again down the mid:
%% up again. & right & left.
%%endtext
% - - - - - - - - - - - - - - - - - - - - - - - - -
